X: 54
T:The Connaught Man's Rambles
% Nottingham Music Database
S:Trad, arr Phil Rowe
M:6/8
K:D
A|"D"FAA dAA|"G"BAB "A7"dAG|"D"FAA "A"Afe|"Bm"dBB "A7"BAG|
"D"FAA dAA|"G"BAB "D"def|"Em"gfe "F#7"dfe|"Bm"dBB B2::
g|"D"faa "G"gbb|"D"afd dcd|"D"faa "G"gbb|"D"afd "A7"e2g|
"D"faa "G"gbb|"D"afd def|"Em"gfg "F#7"efe|"Bm"dBB B2:|<end>
<start>
